assets/symbols/mulberry/bottom_2.svg

<svg height="850.394" viewBox="0 0 850.394 850.394" width="850.394" xmlns="http://www.w3.org/2000/svg"><path d="m158.438 69.201h184.124v184.12h-184.124z" fill="none"/><path d="m342.563 243.32h-184.124l10 10v-149.348-34.772l-10 10h184.124l-10-10v184.12c0 12.897 20 12.897 20 0v-149.348-34.772c0-5.451-4.549-10-10-10h-184.124c-5.451 0-10 4.549-10 10v184.12c0 5.451 4.549 10 10 10h184.124c12.897 0 12.897-20 0-20z" fill="#231f20"/><path d="m158.438 323.522h184.124v184.119h-184.124z" fill="none"/><path d="m342.563 497.642h-184.124l10 10v-149.347-34.772l-10 10h184.124l-10-10v184.119c0 12.897 20 12.897 20 0v-149.347-34.772c0-5.451-4.549-10-10-10h-184.124c-5.451 0-10 4.549-10 10v184.119c0 5.451 4.549 10 10 10h184.124c12.897 0 12.897-20 0-20z" fill="#231f20"/><path d="m158.438 595.765h184.124v184.111h-184.124z" fill="none"/><g fill="#5668af"><circle cx="158.438" cy="749.19" r="13.988"/><circle cx="158.438" cy="718.505" r="13.988"/><circle cx="158.438" cy="687.82" r="13.988"/><circle cx="158.438" cy="657.135" r="13.988"/><circle cx="158.438" cy="626.449" r="13.988"/><circle cx="189.126" cy="595.765" r="13.988"/><circle cx="219.813" cy="595.765" r="13.988"/><circle cx="250.501" cy="595.765" r="13.988"/><circle cx="281.188" cy="595.765" r="13.988"/><circle cx="311.876" cy="595.765" r="13.988"/><circle cx="342.563" cy="626.45" r="13.988"/><circle cx="342.563" cy="657.136" r="13.988"/><circle cx="342.563" cy="687.82" r="13.988"/><circle cx="342.563" cy="718.506" r="13.988"/><circle cx="342.563" cy="749.191" r="13.988"/><circle cx="311.875" cy="779.876" r="13.988"/><circle cx="281.188" cy="779.876" r="13.988"/><circle cx="250.5" cy="779.876" r="13.988"/><circle cx="219.813" cy="779.876" r="13.988"/><circle cx="189.125" cy="779.876" r="13.988"/><circle cx="158.439" cy="595.765" r="13.988"/><circle cx="342.563" cy="595.765" r="13.988"/><circle cx="342.562" cy="779.876" r="13.988"/><circle cx="158.438" cy="779.875" r="13.988"/></g><path d="m0 0h850.394v850.394h-850.394z" fill="none"/><g stroke="#231f20" stroke-width="28"><path d="m767.185 687.517h-337.132" fill="#fff"/><path d="m535.693 590.091-107.693 97.781 107.871 97.752" fill="none"/></g></svg>

<svg xmlns="http://www.w3.org/2000/svg" width="850.394" height="850.394" viewBox="0 0 850.394 850.394" overflow="visible"><path fill="none" d="M158.438 69.201h184.124v184.12H158.438z"/><path d="M342.563 243.32H158.439l10 10V103.972 69.2l-10 10h184.124l-10-10v184.12c0 12.897 20 12.897 20 0V103.972 69.2c0-5.451-4.549-10-10-10H158.439c-5.451 0-10 4.549-10 10v184.12c0 5.451 4.549 10 10 10h184.124c12.897 0 12.897-20 0-20z" fill="#231f20"/><path fill="none" d="M158.438 323.522h184.124v184.119H158.438z"/><path d="M342.563 497.642H158.439l10 10V358.295v-34.772l-10 10h184.124l-10-10v184.119c0 12.897 20 12.897 20 0V358.295v-34.772c0-5.451-4.549-10-10-10H158.439c-5.451 0-10 4.549-10 10v184.119c0 5.451 4.549 10 10 10h184.124c12.897 0 12.897-20 0-20z" fill="#231f20"/><path fill="none" d="M158.438 595.765h184.124v184.111H158.438z"/><circle cx="158.438" cy="749.19" r="13.988" fill="#5668af"/><circle cx="158.438" cy="718.505" r="13.988" fill="#5668af"/><circle cx="158.438" cy="687.82" r="13.988" fill="#5668af"/><circle cx="158.438" cy="657.135" r="13.988" fill="#5668af"/><circle cx="158.438" cy="626.449" r="13.988" fill="#5668af"/><circle cx="189.126" cy="595.765" r="13.988" fill="#5668af"/><circle cx="219.813" cy="595.765" r="13.988" fill="#5668af"/><circle cx="250.501" cy="595.765" r="13.988" fill="#5668af"/><circle cx="281.188" cy="595.765" r="13.988" fill="#5668af"/><circle cx="311.876" cy="595.765" r="13.988" fill="#5668af"/><circle cx="342.563" cy="626.45" r="13.988" fill="#5668af"/><circle cx="342.563" cy="657.136" r="13.988" fill="#5668af"/><circle cx="342.563" cy="687.82" r="13.988" fill="#5668af"/><circle cx="342.563" cy="718.506" r="13.988" fill="#5668af"/><circle cx="342.563" cy="749.191" r="13.988" fill="#5668af"/><circle cx="311.875" cy="779.876" r="13.988" fill="#5668af"/><circle cx="281.188" cy="779.876" r="13.988" fill="#5668af"/><circle cx="250.5" cy="779.876" r="13.988" fill="#5668af"/><circle cx="219.813" cy="779.876" r="13.988" fill="#5668af"/><circle cx="189.125" cy="779.876" r="13.988" fill="#5668af"/><circle cx="158.439" cy="595.765" r="13.988" fill="#5668af"/><circle cx="342.563" cy="595.765" r="13.988" fill="#5668af"/><circle cx="342.562" cy="779.876" r="13.988" fill="#5668af"/><circle cx="158.438" cy="779.875" r="13.988" fill="#5668af"/><path fill="none" d="M0 0h850.394v850.394H0z"/><g stroke="#231f20" stroke-width="28"><path fill="#fff" d="M767.185 687.517H430.053"/><path fill="none" d="M535.693 590.091L428 687.872l107.871 97.752"/></g></svg>
